X: 40
M:6/8
L:1/8
K:G
EFE G2 E|B2 E G2 E|B/2c/2dB F/2G/2AF|GEE E2:|
|f|gfg e/2f/2ge|gfg e2 g|f/2g/2af dfd|f/2g/2af def|
gfg e/2f/2ge|gfg e2 f|g/2a/2bg f/2g/2af|gee e2 f|
g/2a/2bg e/2f/2ge|g/2a/2bg e/2f/2ge|f/2g/2af dfd|f/2g/2af def|
g/2a/2bg f/2g/2af|e/2f/2ge d/2e/2fd|B/2c/2dB F/2G/2AF|GEE E2||

